icons/fill-new-nature-planet-universn-borwser.svg

<svg xmlns="http://www.w3.org/2000/svg" width="32px" height="32px" viewBox="0 0 32 32" version="1.1">
    <title>fill-new-nature-planet-universn-borwser</title>
    <g id="fill-new-nature-planet-universn-borwser" stroke-width="1" fill-rule="evenodd">
        <path d="M27.2623821,20.15175 C25.5729565,24.7330807 21.1679932,28 16,28 C13.0817949,28 10.4068826,26.9583396 8.32680289,25.2265584 C11.2093492,25.1873946 14.5409928,24.6731492 18.0705524,23.7274066 C21.5233525,22.8022316 24.6056599,21.6141464 27.0935864,20.2456738 L27.2623821,20.15175 Z M16,4 C19.9499495,4 23.4541599,5.90843612 25.6408617,8.85353899 C28.7949486,9.0956703 30.9793848,10.0845723 31.4548132,11.8588953 C32.3894929,15.3471673 26.0858787,19.509154 17.5529143,21.795555 C9.01994987,24.0819559 1.47986645,23.6293767 0.545186779,20.1411047 C0.0697583702,18.3667817 1.46708458,16.4181494 4.07797157,14.6307042 C4.75698093,8.64796357 9.83569544,4 16,4 Z M4.05179611,17.1223886 C2.88575646,18.0819954 2.30094509,18.9662773 2.47703843,19.6234666 C2.65318102,20.2808397 3.6022649,20.7543257 5.08874693,21.0011922 C4.59902683,19.934794 4.26122758,18.784377 4.10276122,17.5775423 L4.05179611,17.1223886 Z M26.9112531,10.9988078 L26.9711737,11.1311934 C27.4880849,12.2942447 27.8254834,13.5547402 27.9481919,14.8775027 C29.1129321,13.9199865 29.6992522,13.034459 29.5229616,12.3765334 C29.3566047,11.755681 28.5008032,11.2988514 27.1539838,11.0420432 L26.9112531,10.9988078 Z" id="&#24418;&#29366;" />
    </g>
</svg>

<svg xmlns="http://www.w3.org/2000/svg" viewBox="0 0 32 32"><path fill="currentColor" d="M27.262 20.152C25.573 24.733 21.168 28 16 28a11.951 11.951 0 0 1-7.673-2.773c2.882-.04 6.214-.554 9.744-1.5 3.452-.925 6.535-2.113 9.023-3.481zM16 4c3.95 0 7.454 1.908 9.64 4.854 3.155.242 5.34 1.23 5.815 3.005.934 3.488-5.37 7.65-13.902 9.937C9.02 24.082 1.48 23.629.545 20.14c-.475-1.774.922-3.723 3.533-5.51C4.757 8.648 9.836 4 16 4M4.052 17.122c-1.166.96-1.751 1.844-1.575 2.501.176.658 1.125 1.131 2.612 1.378a11.912 11.912 0 0 1-.986-3.423zM26.912 11l.06.132c.516 1.163.853 2.424.976 3.747 1.165-.958 1.751-1.844 1.575-2.501-.166-.621-1.022-1.078-2.369-1.335z"/></svg>
